X:3
T:No.85 John Gallagher's
C:waltz
L:1/8
M:3/4
K:D
D4G2|A4G2|G4F2|d6|
D4A2|B4A2|A4G2|d6|
d4B2|^G4E2|A4c2|e6|
|[1e4e2|f4e2|e2d2c2|d6:|
|[2e4d2|B4GB|d2d2d2|G6||
cdd2d2|cdd2d2|g2f3e|f6|
cee2e2|=cee2e2|g2f2e2|d6|
cdd2d2|Bdd2d2|g2f3e|a6|
age2e2|ged2d2|e=cA2F2|G6:||
